X:1
T:Title
%%score { ( 1 4 ) | ( 2 3 ) }
L:1/8
Q:1/4=112
M:2/2
K:Bb
V:1 treble nm="Grand Piano"
V:4 treble 
V:2 bass 
V:3 bass 
V:1
 [Fd]4 [Ec]2 [DB]2 | [DF]3 [EG] [DF]4 | A4 G2 A2 | [DB]4 .F4 | [Fd]4 [EFc]2 [DFB]2 | %5
w: W.~H.~Doane * *|||||
 [B,DF]3 [B,EG] .[B,DF]4 | F2- [Fc]2 [B,=EG]2 [CEA]2 | [A,F]8 | [B,DF]4 [DB]2 [FA]2 | %9
w: ||||
 [FA]3 [EG] [EG]4 | [=EG]4 [Ec]2 [DGB]2 | [CGB]3 [CFA] [CFA]4 | [D^FA]4 [Fd]2 [DAc]2 | %13
w: ||||
[M:9/8] [DGB]3 [DG=B] c2 e3 |[M:4/4] d4 d2 c2 | [DB]6 z2 |] %16
w: |||
V:2
 [B,,B,]4 [B,,F,]2 [B,,F,]2 | [B,,B,]3 [B,,B,] [B,,B,]4 | [F,CE]4 [F,B,E]2 [F,CE]2 | [B,,B,]8 | %4
 [B,,B,]4 B,,2 B,,2 | B,,3 B,, z2 F,2 | z2 A,2 C,2 C,2 | F,8 | B,,4 [B,,F,]2 [D,B,]2 | %9
 [E,B,]3 [E,B,] [E,B,]4 | [C,C]4 [C,G,]2 =E,2 | F,3 F, F,2 E,2 | D,4 [D,A,]2 ^F,2 | %13
[M:9/8] G,3 F, E,2 C,3 |[M:4/4] [F,B,F]4 [F,A,]2 [F,A,E]2 | [B,,B,]6 z2 |] %16
V:3
 x8 | x8 | x8 | x8 | x8 | z4 B,,4 | C,4 z4 | x8 | x8 | x8 | x8 | x8 | x8 |[M:9/8] x9 |[M:4/4] x8 | %15
 x8 |] %16
V:4
 x8 | x8 | x8 | x8 | x8 | x8 | .[CA]4 z4 | x8 | x8 | x8 | x8 | x8 | x8 |[M:9/8] z3 z [CG]2- [CG]3 | %14
[M:4/4] x8 | x8 |] %16

